X: 16
T: Rights Of Man, The
Z: John E Roche
S: https://thesession.org/tunes/83#setting46896
R: hornpipe
M: 4/4
L: 1/8
K: Emin
|:GA|BdAB GAGF|EFGA B2 ef|gfed edBd|cBAG A2 GA|
BdAB GAGF|EFGA B2 ef|gfed Bgfg|e2 E2 E2:|
|:ga|bagf efge|Begf afge|dcde defg|agaf bagf|
edef gfga|bBaB gBfB|gfed Bgfg|e2 E2 E2:|

